X:1
T:Åpen korøvelse - Volo volo
T:Anon. Xhosa
T:Jeg tør ikke dra til Kwamashu. Jeg er redd for våpen.
%%score [ 1 2 3 4 ]
L:1/8
Q:1/4=80
M:4/4
K:F
V:1 treble nm="L"
V:2 treble nm="I"
V:3 treble-8 nm="II"
V:4 bass nm="III"
V:1
 C D |: F6 E D | C3/2 (F/ F2) F A G F | F3/2 F3/2 F3 E D | C6 C D | F6 E D | C3/2 F/- F2 F A G F | %7
w: Nge- khe|ndi- ye Kwa-|ma- shu _ Nge- sa- ba ma|vo- lo vo- lo we-|ma. Nge- khe|ndi- ye Kwa-|ma- shu _ Nge- sa- ba ma|
 F3/2 F3/2 F3 E D | C4 C E D C | C3/2 C3/2 C3 A, D | C4 F A G F | F3/2 F3/2 F3 E D | C4 C F E D | %13
w: vo- lo vo- lo we-|ma. Nge- sa- ba ma|vo- lo vo- lo we-|ma, Nge- sa- ba ma|vo- lo vo- lo we-|ma, Nge- sa- ba- ma|
 C3/2 C3/2 C3 A, D | C4 F A G F | F3/2 F3/2 F3 E D | C6 C D :| %17
w: vo- lo vo- lo we-|ma, Nge- sa- ba- ma|vo- lo vo- lo we-|ma, Nge- khe|
V:2
 z2 |: F3/2 F3/2 F3 F2 | F3/2 F3/2 F3 F2 | F3/2 F3/2 F3 F2 | E3/2 E3/2 E3 E2 | F3/2 F3/2 F3 F2 | %6
w: |Vo- lo vo- lo|vo- lo vo- lo|etc. * * *|||
 F3/2 F3/2 F3 F2 | F3/2 F3/2 F3 F2 | E3/2 E3/2 E3 E2 | F3/2 F3/2 F3 F2 | F3/2 F3/2 F3 F2 | %11
w: |||||
 F3/2 F3/2 F3 F2 | E3/2 E3/2 E3 E2 | F3/2 F3/2 F3 F2 | F3/2 F3/2 F3 F2 | F3/2 F3/2 F3 F2 | %16
w: |||||
 E3/2 E3/2 E3 E2 :| %17
w: |
V:3
 z2 |: c3/2 c3/2 c3 c2 | c3/2 c3/2 c3 c2 | d3/2 d3/2 d3 d2 | c3/2 c3/2 c3 c2 | c3/2 c3/2 c3 c2 | %6
w: |Vo- lo vo- lo|vo- lo vo- lo|etc. * * *|||
 c3/2 c3/2 c3 c2 | d3/2 d3/2 d3 d2 | c3/2 c3/2 c3 c2 | c3/2 c3/2 c3 c2 | c3/2 c3/2 c3 c2 | %11
w: |||||
 d3/2 d3/2 d3 d2 | c3/2 c3/2 c3 c2 | c3/2 c3/2 c3 c2 | c3/2 c3/2 c3 c2 | d3/2 d3/2 d3 d2 | %16
w: |||||
 c3/2 c3/2 c3 c2 :| %17
w: |
V:4
 z2 |: A,3/2 A,3/2 A,3 A,2 | A,3/2 A,3/2 A,3 A,2 | B,3/2 B,3/2 B,3 B,2 | G,3/2 G,3/2 G,3 G,2 | %5
w: |Vo- lo vo- lo|vo- lo vo- lo|etc. * * *||
 A,3/2 A,3/2 A,3 A,2 | A,3/2 A,3/2 A,3 A,2 | B,3/2 B,3/2 B,3 B,2 | G,3/2 G,3/2 G,3 G,2 | %9
w: ||||
 A,3/2 A,3/2 A,3 A,2 | A,3/2 A,3/2 A,3 A,2 | B,3/2 B,3/2 B,3 B,2 | G,3/2 G,3/2 G,3 G,2 | %13
w: ||||
 A,3/2 A,3/2 A,3 A,2 | A,3/2 A,3/2 A,3 A,2 | B,3/2 B,3/2 B,3 B,2 | G,3/2 G,3/2 G,3 G,2 :| %17
w: ||||

